X: 20354
Q: "Waltz time."
M: 3/4
L: 1/4
K: D
(dc)d | (b2a) | (dc)d | (g2f) |\
(g2f) | (b2a) | (g2e) | (f2d) |\
(AF)A | (B2A) | (DE)F | (G2F) |\
(GA)B | (A2d) | (e2c) | d2 |]
(A/G/) |\
(FG)F | (E2D)| (AB)A | (G2F) |\
(B2A) | (d2c) |(e2c) | (A2d) |\
(f2d) | (e2A) | (B2d) | (A2F) |\
(G/A/)(B/c/)(d/e/)| (f2a) | (g2c) | d2 |]


